app/ui/static/images/icons/solid/cube.svg

<svg width="20" height="20" viewBox="0 0 20 20" fill="none" xmlns="http://www.w3.org/2000/svg">
<path d="M10.3623 1.09332C10.1368 0.968894 9.86321 0.968894 9.63769 1.09332L2.52344 5.01842L10 9.14342L17.4766 5.01842L10.3623 1.09332Z" fill="#0F172A"/>
<path d="M18 6.44278L10.75 10.4428V18.6928L17.6123 14.9067C17.8515 14.7747 18 14.5232 18 14.25V6.44278Z" fill="#0F172A"/>
<path d="M9.25 18.6928V10.4428L2 6.44278V14.25C2 14.5232 2.14852 14.7747 2.38769 14.9067L9.25 18.6928Z" fill="#0F172A"/>
</svg>

<svg xmlns="http://www.w3.org/2000/svg" viewBox="0 0 20 20" fill="currentColor" aria-hidden="true">
  <path fill-rule="evenodd" d="M10.362 1.093a.75.75 0 00-.724 0L2.523 5.018 10 9.143l7.477-4.125-7.115-3.925zM18 6.443l-7.25 4v8.25l6.862-3.786A.75.75 0 0018 14.25V6.443zm-8.75 12.25v-8.25l-7.25-4v7.807a.75.75 0 00.388.657l6.862 3.786z" clip-rule="evenodd"/>
</svg>
